;START_OF_HEADER
;HEADER_VERSION:0.1
;FLAVOR:Griffin
;GENERATOR.NAME:Cura_SteamEngine
;GENERATOR.VERSION:4.13.0
;GENERATOR.BUILD_DATE:2022-01-11
;TARGET_MACHINE.NAME:Ultimaker 3 Extended
;EXTRUDER_TRAIN.0.INITIAL_TEMPERATURE:205
;EXTRUDER_TRAIN.0.MATERIAL.VOLUME_USED:21528
;EXTRUDER_TRAIN.0.MATERIAL.GUID:506c9f0d-e3aa-4bd4-b2d2-23e2425b1aa9
;EXTRUDER_TRAIN.0.NOZZLE.DIAMETER:0.4
;EXTRUDER_TRAIN.0.NOZZLE.NAME:AA 0.4
;BUILD_PLATE.TYPE:glass
;BUILD_PLATE.INITIAL_TEMPERATURE:60
;PRINT.TIME:14185
;PRINT.GROUPS:1
;PRINT.SIZE.MIN.X:45.175
;PRINT.SIZE.MIN.Y:43.675
;PRINT.SIZE.MIN.Z:0.27
;PRINT.SIZE.MAX.X:187.825
;PRINT.SIZE.MAX.Y:171.325
;PRINT.SIZE.MAX.Z:74.07
;END_OF_HEADER
;Generated with Cura_SteamEngine 4.13.0
T0
M82 ;absolute extrusion mode

G92 E0
M109 S205
G280 S1
G0 Z20.001
G1 F1500 E-6.5
;LAYER_COUNT:493
;LAYER:0
M107
M204 S625
M205 X30 Y30
G1 F600 Z2.27
;MESH:collision.stl
G0 F3750 X117.835 Y108.621 Z2.27
M204 S500
M205 X20 Y20
;TYPE:WALL-OUTER
G1 F600 Z0.27
G1 F1500 E0
G1 F1200 X118.125 Y108.1 E0.0106
G1 X118.216 Y107.761 E0.01684
G1 X118.216 Y107.215 E0.02654
G1 X118.125 Y106.876 E0.03278
G1 X117.853 Y106.404 E0.04247
G1 X117.59 Y106.141 E0.04908
G1 X117.122 Y105.873 E0.05867
G1 X116.781 Y105.782 E0.06494
G1 X116.536 Y105.76 E0.06931
G1 X116.184 Y105.791 E0.07559
G1 X115.674 Y105.977 E0.08524
G1 X115.386 Y106.178 E0.09149
G1 X115.142 Y106.426 E0.09767
G1 X114.873 Y106.896 E0.1073
G1 X114.782 Y107.236 E0.11355
G1 X114.782 Y107.781 E0.12324
G1 X114.873 Y108.122 E0.12952
G1 X115.156 Y108.607 E0.1395
G1 X115.404 Y108.853 E0.14571
G1 X115.876 Y109.125 E0.15539
G1 X116.215 Y109.216 E0.16163
G1 X116.761 Y109.216 E0.17134
G1 X117.1 Y109.125 E0.17757
G1 X117.542 Y108.874 E0.18661
G1 X117.835 Y108.621 E0.19349
M204 S625
M205 X30 Y30
G0 F3750 X117.932 Y108.447
G0 X118.334 Y108.671
G0 X187.52 Y171.02
G0 X187.59 Y171.09
M104 S200
M204 S500
M205 X20 Y20
G1 F1200 X45.41 Y171.09 E2.72088
G1 X45.41 Y43.91 E4.98163
G1 X187.59 Y43.91 E7.50902
G1 X187.59 Y171.09 E9.76977
M204 S625
M205 X30 Y30
G0 F3750 X187.39 Y171.09
G0 X187.128 Y170.628
;MESH:NONMESH
G0 F600 X187.128 Y170.628 Z0.42
G0 F3750 X119.239 Y109.742
;TIME_ELAPSED:34.740544
;LAYER:1
M106 S85
M204 S500
M205 X20 Y20
;TYPE:WALL-OUTER
;MESH:collision.stl
G1 F1500 X119.244 Y109.706 E9.77006
G1 X119.562 Y109.249 E9.77465
G1 X119.821 Y108.693 E9.77969
G1 X119.98 Y108.102 E9.78473
G1 X120.034 Y107.49 E9.78979
G1 X119.98 Y106.88 E9.79483
G1 X119.821 Y106.288 E9.79987
G1 X119.562 Y105.732 E9.80492
G1 X119.211 Y105.23 E9.80996
G1 X118.768 Y104.787 E9.81512
G1 X118.265 Y104.437 E9.82016
G1 X117.709 Y104.177 E9.82521
G1 X117.117 Y104.019 E9.83025
G1 X116.507 Y103.965 E9.83529
G1 X115.897 Y104.019 E9.84033
G1 X115.304 Y104.177 E9.84538
G1 X114.748 Y104.437 E9.85043
G1 X114.246 Y104.788 E9.85547
G1 X113.787 Y105.245 E9.8608
G1 X113.437 Y105.748 E9.86585
G1 X113.177 Y106.304 E9.8709
G1 X113.019 Y106.897 E9.87595
G1 X112.965 Y107.507 E9.88099
G1 X113.019 Y108.117 E9.88603
G1 X113.177 Y108.709 E9.89107
G1 X113.437 Y109.265 E9.89612
G1 X113.795 Y109.778 E9.90127
G1 X114.23 Y110.211 E9.90632
G1 X114.732 Y110.562 E9.91136
G1 X115.288 Y110.821 E9.91641
G1 X115.88 Y110.98 E9.92145
G1 X116.49 Y111.034 E9.92649
G1 X117.102 Y110.98 E9.93155
G1 X117.693 Y110.821 E9.93659
G1 X118.249 Y110.562 E9.94164
G1 X118.701 Y110.245 E9.94618
G1 X118.744 Y110.24 E9.94653
G1 X119.239 Y109.742 E9.95231
M204 S2812
M205 X30 Y30
G0 F9375 X119.244 Y109.706
G0 X119.337 Y109.572
G0 X119.653 Y109.793
G0 X187.755 Y171.255
G0 X187.825 Y171.325
M204 S500
M205 X20 Y20
G1 F1500 X45.175 Y171.325 E11.12627
G1 X45.175 Y43.675 E12.17678
G1 X187.825 Y43.675 E13.35073
G1 X187.825 Y171.325 E14.40125
M204 S2812
M205 X30 Y30
G0 F9375 X187.625 Y171.325
G0 X187.44 Y170.94
;MESH:NONMESH
G0 F600 X187.44 Y170.94 Z0.57
G0 F9375 X120.35 Y110.672
;TIME_ELAPSED:58.665443
;LAYER:2
M106 S170
M204 S500
M205 X20 Y20
;TYPE:WALL-OUTER
;MESH:collision.stl
G1 F1800 X120.354 Y110.64 E14.40151
G1 X120.816 Y109.978 E14.40815
G1 X121.183 Y109.192 E14.41529
G1 X121.407 Y108.355 E14.42242
G1 X121.483 Y107.492 E14.42955
G1 X121.407 Y106.629 E14.43668
G1 X121.183 Y105.793 E14.44381
G1 X120.816 Y105.008 E14.45094
G1 X120.32 Y104.299 E14.45806
G1 X119.7 Y103.678 E14.46528
G1 X118.99 Y103.183 E14.4724
G1 X118.205 Y102.816 E14.47953
G1 X117.367 Y102.592 E14.48667
G1 X116.505 Y102.516 E14.49379
G1 X115.642 Y102.592 E14.50092
G1 X114.806 Y102.816 E14.50805
G1 X114.02 Y103.183 E14.51518
G1 X113.311 Y103.679 E14.52231
G1 X112.678 Y104.31 E14.52966
G1 X112.183 Y105.02 E14.53678
G1 X111.816 Y105.806 E14.54392
G1 X111.592 Y106.642 E14.55105
G1 X111.516 Y107.505 E14.55818
G1 X111.592 Y108.367 E14.5653
G1 X111.816 Y109.205 E14.57244
G1 X112.183 Y109.99 E14.57957
G1 X112.686 Y110.708 E14.58678
G1 X113.299 Y111.32 E14.59391
G1 X114.008 Y111.816 E14.60103
G1 X114.793 Y112.183 E14.60816
G1 X115.629 Y112.407 E14.61528
G1 X116.492 Y112.483 E14.62241
G1 X117.355 Y112.407 E14.62954
G1 X118.192 Y112.183 E14.63667
G1 X118.978 Y111.816 E14.64381
G1 X119.636 Y111.355 E14.65043
G1 X119.674 Y111.351 E14.65074
G1 X120.35 Y110.672 E14.65862
M204 S5000
M205 X30 Y30
G0 F15000 X120.354 Y110.64
G0 X120.45 Y110.503
G0 X120.764 Y110.723
G0 X187.755 Y171.255
G0 X187.825 Y171.325
M204 S500
M205 X20 Y20
G1 F1800 X45.175 Y171.325 E15.83258
G1 X45.175 Y43.675 E16.88309
G1 X187.825 Y43.675 E18.05705
G1 X187.825 Y171.325 E19.10756
M204 S5000
M205 X30 Y30
G0 F15000 X187.625 Y171.325
G0 X187.44 Y170.94
;MESH:NONMESH
G0 F600 X187.44 Y170.94 Z0.72
G0 F15000 X120.602 Y112.463
;TIME_ELAPSED:78.713436
;LAYER:3
M106 S255
M204 S500
M205 X20 Y20
;TYPE:WALL-OUTER
;MESH:collision.stl
G1 F1800 X121.455 Y111.607 E19.1175
G1 X121.46 Y111.579 E19.11774
G1 X122.071 Y110.706 E19.1265
G1 X122.544 Y109.691 E19.13572
G1 X122.834 Y108.61 E19.14493
G1 X122.932 Y107.495 E19.15414
G1 X122.834 Y106.379 E19.16336
G1 X122.544 Y105.299 E19.17257
G1 X122.071 Y104.283 E19.18179
G1 X121.429 Y103.367 E19.19099
G1 X120.633 Y102.569 E19.20027
G1 X119.715 Y101.929 E19.20948
G1 X118.7 Y101.455 E19.2187
G1 X117.619 Y101.165 E19.22791
G1 X116.504 Y101.067 E19.23712
G1 X115.388 Y101.165 E19.24634
G1 X114.308 Y101.455 E19.25554
G1 X113.292 Y101.929 E19.26477
G1 X112.376 Y102.57 E19.27397
G1 X111.569 Y103.375 E19.28335
G1 X110.929 Y104.292 E19.29255
G1 X110.455 Y105.308 E19.30178
G1 X110.165 Y106.388 E19.31098
G1 X110.067 Y107.504 E19.3202
G1 X110.165 Y108.619 E19.32941
G1 X110.455 Y109.7 E19.33862
G1 X110.929 Y110.715 E19.34784
G1 X111.574 Y111.638 E19.35711
G1 X112.367 Y112.429 E19.36633
G1 X113.283 Y113.071 E19.37553
G1 X114.299 Y113.544 E19.38476
G1 X115.379 Y113.834 E19.39396
G1 X116.495 Y113.932 E19.40318
G1 X117.61 Y113.834 E19.41239
G1 X118.691 Y113.544 E19.4216
G1 X119.706 Y113.071 E19.43082
G1 X120.569 Y112.465 E19.43949
G1 X120.602 Y112.463 E19.43977
M204 S5000
M205 X30 Y30
G0 F15000 X120.743 Y112.322
G0 X121.014 Y112.593
G0 X187.755 Y171.255
G0 X187.825 Y171.325
M204 S500
M205 X20 Y20
G1 F1800 X45.175 Y171.325 E20.61372
G1 X45.175 Y43.675 E21.66423
G1 X187.825 Y43.675 E22.83819
G1 X187.825 Y171.325 E23.8887
M204 S5000
M205 X30 Y30
G0 F15000 X187.625 Y171.325
G0 X187.44 Y170.94
;MESH:NONMESH
G0 F600 X187.44 Y170.94 Z0.87
G0 F15000 X121.535 Y113.571
;TIME_ELAPSED:99.046686
;LAYER:4
M204 S500
M205 X20 Y20
;TYPE:WALL-OUTER
;MESH:collision.stl
G1 F1800 X122.559 Y112.545 E23.90063
G1 X122.566 Y112.521 E23.90083
G1 X123.325 Y111.435 E23.91174
G1 X123.906 Y110.19 E23.92304
G1 X124.261 Y108.864 E23.93434
G1 X124.381 Y107.497 E23.94563
G1 X124.261 Y106.13 E23.95693
G1 X123.906 Y104.804 E23.96822
G1 X123.325 Y103.559 E23.97953
G1 X122.539 Y102.435 E23.99082
G1 X121.565 Y101.46 E24.00216
G1 X120.44 Y100.674 E24.01345
G1 X119.195 Y100.094 E24.02476
G1 X117.869 Y99.738 E24.03606
G1 X116.503 Y99.619 E24.04734
G1 X115.135 Y99.738 E24.05864
G1 X113.809 Y100.094 E24.06994
G1 X112.564 Y100.674 E24.08124
G1 X111.441 Y101.461 E24.09253
G1 X110.46 Y102.44 E24.10393
G1 X109.674 Y103.564 E24.11522
G1 X109.094 Y104.809 E24.12652
G1 X108.738 Y106.135 E24.13782
G1 X108.619 Y107.503 E24.14912
G1 X108.738 Y108.869 E24.16041
G1 X109.094 Y110.195 E24.17171
G1 X109.674 Y111.44 E24.18301
G1 X110.463 Y112.568 E24.19434
G1 X111.435 Y113.539 E24.20565
G1 X112.559 Y114.325 E24.21693
G1 X113.804 Y114.906 E24.22824
G1 X115.13 Y115.261 E24.23954
G1 X116.497 Y115.381 E24.25083
G1 X117.864 Y115.261 E24.26212
G1 X119.19 Y114.906 E24.27342
G1 X120.435 Y114.325 E24.28473
G1 X121.507 Y113.574 E24.2955
G1 X121.535 Y113.571 E24.29573
M204 S5000
M205 X30 Y30
G0 F15000 X121.676 Y113.43
G0 X121.947 Y113.702
G0 X187.755 Y171.255
G0 X187.825 Y171.325
M204 S500
M205 X20 Y20
G1 F1800 X45.175 Y171.325 E25.46968
G1 X45.175 Y43.675 E26.5202
G1 X187.825 Y43.675 E27.69415
G1 X187.825 Y171.325 E28.74466
M204 S5000
M205 X30 Y30
G0 F15000 X187.625 Y171.325
G0 X187.44 Y170.94
;MESH:NONMESH
G0 F600 X187.44 Y170.94 Z1.02
G0 F15000 X114.879 Y116.689
;TIME_ELAPSED:119.690160
;LAYER:5
M204 S500
M205 X20 Y20
;TYPE:WALL-OUTER
;MESH:collision.stl
G1 F1800 X116.499 Y116.83 E28.75804
G1 X118.119 Y116.689 E28.77143
G1 X119.689 Y116.267 E28.7848
G1 X121.163 Y115.58 E28.79819
G1 X122.494 Y114.648 E28.81156
G1 X123.648 Y113.497 E28.82497
G1 X124.58 Y112.163 E28.83837
G1 X125.267 Y110.689 E28.85175
G1 X125.689 Y109.119 E28.86513
G1 X125.83 Y107.499 E28.87851
G1 X125.689 Y105.879 E28.89189
G1 X125.267 Y104.309 E28.90527
G1 X124.58 Y102.835 E28.91866
G1 X123.648 Y101.503 E28.93203
G1 X122.497 Y100.351 E28.94544
G1 X121.165 Y99.42 E28.95881
G1 X119.691 Y98.733 E28.97219
G1 X118.121 Y98.311 E28.98557
G1 X116.501 Y98.17 E28.99895
G1 X114.881 Y98.311 E29.01234
G1 X113.311 Y98.733 E29.02572
G1 X111.837 Y99.42 E29.0391
G1 X110.505 Y100.352 E29.05248
G1 X109.351 Y101.504 E29.0659
G1 X108.42 Y102.837 E29.07928
G1 X107.733 Y104.311 E29.09266
G1 X107.311 Y105.881 E29.10604
G1 X107.17 Y107.501 E29.11942
G1 X107.311 Y109.121 E29.13281
G1 X107.733 Y110.691 E29.14618
G1 X108.42 Y112.165 E29.15957
G1 X109.352 Y113.498 E29.17295
G1 X110.503 Y114.648 E29.18634
G1 X111.835 Y115.58 E29.19972
G1 X113.309 Y116.267 E29.21311
G1 X114.879 Y116.689 E29.22648
M204 S5000
M205 X30 Y30
G0 F15000 X115.078 Y116.706
G0 X115.044 Y117.089
G0 X187.755 Y171.255
G0 X187.825 Y171.325
M204 S500
M205 X20 Y20
G1 F1800 X45.175 Y171.325 E30.40044
G1 X45.175 Y43.675 E31.45095
G1 X187.825 Y43.675 E32.62491
G1 X187.825 Y171.325 E33.67542
M204 S5000
M205 X30 Y30
G0 F15000 X187.625 Y171.325
G0 X187.44 Y170.94
;MESH:NONMESH
G0 F600 X187.44 Y170.94 Z1.17
G0 F15000 X114.699 Y117.707
;TIME_ELAPSED:140.654556
;LAYER:6
M204 S500
M205 X20 Y20
;TYPE:WALL-OUTER
;MESH:collision.stl
G1 F1800 X116.502 Y117.864 E33.69031
G1 X116.591 Y117.854 E33.69105
G1 X118.303 Y117.707 E33.70519
G1 X118.387 Y117.682 E33.70591
G1 X120.047 Y117.238 E33.72005
G1 X121.685 Y116.474 E33.73493
G1 X121.756 Y116.421 E33.73565
G1 X123.162 Y115.439 E33.74977
G1 X124.438 Y114.161 E33.76463
G1 X125.476 Y112.681 E33.77951
G1 X126.24 Y111.043 E33.79438
G1 X126.26 Y110.961 E33.79508
G1 X126.707 Y109.301 E33.80922
G1 X126.864 Y107.498 E33.82412
G1 X126.854 Y107.409 E33.82486
G1 X126.707 Y105.697 E33.839
G1 X126.682 Y105.613 E33.83972
G1 X126.238 Y103.953 E33.85386
G1 X126.199 Y103.873 E33.85459
G1 X125.474 Y102.315 E33.86873
G1 X125.421 Y102.244 E33.86946
G1 X124.438 Y100.837 E33.88359
G1 X124.377 Y100.778 E33.88429
G1 X123.161 Y99.56 E33.89845
G1 X123.086 Y99.51 E33.89919
G1 X121.681 Y98.524 E33.91332
G1 X120.043 Y97.76 E33.92819
G1 X119.961 Y97.74 E33.92889
G1 X118.301 Y97.293 E33.94303
G1 X116.498 Y97.136 E33.95793
G1 X116.409 Y97.146 E33.95867
G1 X114.697 Y97.293 E33.97281
G1 X114.613 Y97.318 E33.97353
G1 X112.953 Y97.762 E33.98767
G1 X111.315 Y98.526 E34.00254
G1 X111.244 Y98.579 E34.00327
G1 X109.838 Y99.561 E34.01739
G1 X108.562 Y100.839 E34.03225
G1 X107.524 Y102.319 E34.04713
G1 X106.76 Y103.957 E34.062
G1 X106.74 Y104.039 E34.06269
G1 X106.293 Y105.699 E34.07684
G1 X106.136 Y107.502 E34.09174
G1 X106.146 Y107.591 E34.09247
G1 X106.293 Y109.303 E34.10661
G1 X106.317 Y109.383 E34.1073
G1 X106.762 Y111.047 E34.12148
G1 X107.526 Y112.685 E34.13635
G1 X107.579 Y112.756 E34.13708
G1 X108.561 Y114.162 E34.15119
G1 X109.839 Y115.438 E34.16606
G1 X111.319 Y116.476 E34.18093
G1 X112.957 Y117.24 E34.19581
G1 X113.039 Y117.26 E34.1965
G1 X114.699 Y117.707 E34.21065
M204 S5000
M205 X30 Y30
G0 F15000 X114.898 Y117.724
G0 X114.864 Y118.107
G0 X187.755 Y171.255
G0 X187.825 Y171.325
M204 S500
M205 X20 Y20
G1 F1800 X45.175 Y171.325 E35.3846
G1 X45.175 Y43.675 E36.43512
G1 X187.825 Y43.675 E37.60907
G1 X187.825 Y171.325 E38.65958
M204 S5000
M205 X30 Y30
G0 F15000 X187.625 Y171.325
G0 X187.44 Y170.94
;MESH:NONMESH
G0 F600 X187.44 Y170.94 Z1.32
G0 F15000 X114.617 Y118.173
;TIME_ELAPSED:161.832687
;LAYER:7
M204 S500
M205 X20 Y20
;TYPE:WALL-OUTER
;MESH:collision.stl
G1 F1800 X116.5 Y118.337 E38.67514
G1 X118.383 Y118.173 E38.69069
G1 X120.208 Y117.683 E38.70624
G1 X120.436 Y117.575 E38.70832
G1 X121.919 Y116.885 E38.72178
G1 X122.127 Y116.736 E38.72389
G1 X123.466 Y115.802 E38.73732
G1 X124.801 Y114.465 E38.75287
G1 X125.885 Y112.919 E38.76841
G1 X126.683 Y111.207 E38.78395
G1 X127.173 Y109.383 E38.7995
G1 X127.337 Y107.5 E38.81505
G1 X127.173 Y105.617 E38.83061
G1 X126.683 Y103.792 E38.84616
G1 X126.575 Y103.564 E38.84823
G1 X125.885 Y102.081 E38.86169
G1 X125.736 Y101.873 E38.8638
G1 X124.801 Y100.534 E38.87724
G1 X123.466 Y99.198 E38.89278
G1 X123.257 Y99.054 E38.89487
G1 X121.919 Y98.115 E38.90832
G1 X120.207 Y97.317 E38.92387
G1 X118.383 Y96.827 E38.93941
G1 X116.5 Y96.663 E38.95497
G1 X114.617 Y96.827 E38.97052
G1 X112.792 Y97.317 E38.98607
G1 X112.564 Y97.425 E38.98815
G1 X111.081 Y98.115 E39.00161
G1 X110.873 Y98.264 E39.00372
G1 X109.534 Y99.198 E39.01715
G1 X108.199 Y100.535 E39.0327
G1 X107.115 Y102.081 E39.04824
G1 X106.317 Y103.793 E39.06378
G1 X105.827 Y105.617 E39.07933
G1 X105.663 Y107.5 E39.09488
G1 X105.827 Y109.383 E39.11044
G1 X106.317 Y111.208 E39.12599
G1 X106.425 Y111.436 E39.12806
G1 X107.115 Y112.919 E39.14152
G1 X107.264 Y113.127 E39.14363
G1 X108.198 Y114.466 E39.15707
G1 X109.535 Y115.801 E39.17261
G1 X111.081 Y116.885 E39.18815
G1 X112.793 Y117.683 E39.2037
G1 X114.617 Y118.173 E39.21924
M204 S5000
M205 X30 Y30
G0 F15000 X114.816 Y118.19
G0 X114.782 Y118.573
G0 X187.755 Y171.255
G0 X187.825 Y171.325
M204 S500
M205 X20 Y20
G1 F1800 X45.175 Y171.325 E40.3932
G1 X45.175 Y43.675 E41.44371
G1 X187.825 Y43.675 E42.61766
G1 X187.825 Y171.325 E43.66817
M204 S5000
M205 X30 Y30
G0 F15000 X187.625 Y171.325
G0 X187.44 Y170.94
;MESH:NONMESH
G0 F600 X187.44 Y170.94 Z1.47
G0 F15000 X114.536 Y118.639
;TIME_ELAPSED:183.108130
;LAYER:8
M204 S500
M205 X20 Y20
;TYPE:WALL-OUTER
;MESH:collision.stl
G1 F1800 X116.5 Y118.81 E43.6844
G1 X118.464 Y118.639 E43.70062
G1 X120.369 Y118.128 E43.71685
G1 X120.751 Y117.948 E43.72033
G1 X122.157 Y117.295 E43.73309
G1 X122.501 Y117.051 E43.73656
G1 X123.77 Y116.165 E43.74929
G1 X125.164 Y114.769 E43.76553
G1 X126.295 Y113.155 E43.78175
G1 X126.472 Y112.772 E43.78522
G1 X127.128 Y111.369 E43.79797
G1 X127.236 Y110.96 E43.80145
G1 X127.639 Y109.464 E43.8142
G1 X127.81 Y107.5 E43.83042
G1 X127.639 Y105.536 E43.84665
G1 X127.128 Y103.631 E43.86288
G1 X126.948 Y103.249 E43.86635
G1 X126.295 Y101.843 E43.87911
G1 X126.051 Y101.499 E43.88258
G1 X125.164 Y100.23 E43.89532
G1 X124.864 Y99.932 E43.8988
G1 X123.769 Y98.835 E43.91156
G1 X122.155 Y97.704 E43.92778
G1 X121.772 Y97.528 E43.93125
G1 X120.369 Y96.872 E43.94399
G1 X119.96 Y96.764 E43.94747
