;START_OF_HEADER
;HEADER_VERSION:0.1
;FLAVOR:Griffin
;GENERATOR.NAME:Cura_SteamEngine
;GENERATOR.VERSION:4.13.0
;GENERATOR.BUILD_DATE:2022-01-11
;TARGET_MACHINE.NAME:Ultimaker 3 Extended
;EXTRUDER_TRAIN.0.INITIAL_TEMPERATURE:205
;EXTRUDER_TRAIN.0.MATERIAL.VOLUME_USED:7445
;EXTRUDER_TRAIN.0.MATERIAL.GUID:506c9f0d-e3aa-4bd4-b2d2-23e2425b1aa9
;EXTRUDER_TRAIN.0.NOZZLE.DIAMETER:0.4
;EXTRUDER_TRAIN.0.NOZZLE.NAME:AA 0.4
;BUILD_PLATE.TYPE:glass
;BUILD_PLATE.INITIAL_TEMPERATURE:60
;PRINT.TIME:4852
;PRINT.GROUPS:1
;PRINT.SIZE.MIN.X:59.175
;PRINT.SIZE.MIN.Y:50.175
;PRINT.SIZE.MIN.Z:0.27
;PRINT.SIZE.MAX.X:173.825
;PRINT.SIZE.MAX.Y:164.825
;PRINT.SIZE.MAX.Z:74.07
;END_OF_HEADER
;Generated with Cura_SteamEngine 4.13.0
T0
M82 ;absolute extrusion mode

G92 E0
M109 S205
G280 S1
G0 Z20.001
G1 F1500 E-6.5
;LAYER_COUNT:493
;LAYER:0
M107
M104 S200
M204 S625
M205 X30 Y30
G1 F600 Z2.27
;MESH:Copy of Cube Extruder (3).stl
G0 F3750 X116.809 Y108.338 Z2.27
M204 S500
M205 X20 Y20
;TYPE:WALL-OUTER
G1 F600 Z0.27
G1 F1500 E0
G1 F300 X116.5 Y108.393 E0.00558
G1 X116.191 Y108.338 E0.01116
G1 X115.919 Y108.179 E0.01676
G1 X115.725 Y107.943 E0.02219
G1 X115.619 Y107.651 E0.02771
G1 X115.619 Y107.349 E0.03308
G1 X115.725 Y107.057 E0.0386
G1 X115.919 Y106.821 E0.04403
G1 X116.191 Y106.662 E0.04963
G1 X116.5 Y106.607 E0.05521
G1 X116.809 Y106.662 E0.06079
G1 X117.081 Y106.821 E0.06639
G1 X117.275 Y107.057 E0.07182
G1 X117.381 Y107.349 E0.07734
G1 X117.381 Y107.651 E0.08271
G1 X117.275 Y107.943 E0.08823
G1 X117.081 Y108.179 E0.09367
G1 X116.809 Y108.338 E0.09927
M204 S625
M205 X30 Y30
G0 F3750 X116.612 Y108.373
G0 X116.541 Y107.958
G1 F1500 E-6.40073
;MESH:NONMESH
G0 F600 X116.541 Y107.958 Z0.42
G0 F3750 X117.047 Y110.611
;TIME_ELAPSED:5.622952
;LAYER:1
M106 S85
M204 S500
M205 X20 Y20
;TYPE:WALL-OUTER
;MESH:Copy of Cube Extruder (3).stl
G1 F1500 E0.09927
G1 F300 X116.5 Y110.66 E0.10379
G1 X115.953 Y110.611 E0.10831
G1 X115.423 Y110.469 E0.11282
G1 X114.919 Y110.235 E0.11739
G1 X114.471 Y109.92 E0.1219
G1 X114.08 Y109.529 E0.12645
G1 X113.765 Y109.081 E0.13096
G1 X113.531 Y108.577 E0.13553
G1 X113.389 Y108.047 E0.14005
G1 X113.34 Y107.5 E0.14457
G1 X113.389 Y106.953 E0.14909
G1 X113.531 Y106.423 E0.1536
G1 X113.765 Y105.919 E0.15817
G1 X114.08 Y105.471 E0.16268
G1 X114.471 Y105.08 E0.16723
G1 X114.919 Y104.765 E0.17174
G1 X115.423 Y104.531 E0.17631
G1 X115.953 Y104.389 E0.18083
G1 X116.5 Y104.34 E0.18535
G1 X117.047 Y104.389 E0.18987
G1 X117.577 Y104.531 E0.19438
G1 X118.081 Y104.765 E0.19896
G1 X118.529 Y105.08 E0.20346
G1 X118.92 Y105.471 E0.20801
G1 X119.235 Y105.919 E0.21252
G1 X119.469 Y106.423 E0.21709
G1 X119.611 Y106.953 E0.22161
G1 X119.66 Y107.5 E0.22613
G1 X119.611 Y108.047 E0.23065
G1 X119.469 Y108.577 E0.23516
G1 X119.235 Y109.081 E0.23974
G1 X118.92 Y109.529 E0.24424
G1 X118.529 Y109.92 E0.24879
G1 X118.081 Y110.235 E0.2533
G1 X117.577 Y110.469 E0.25787
G1 X117.047 Y110.611 E0.26239
M204 S2812
M205 X30 Y30
G0 F9375 X116.848 Y110.628
G0 X116.819 Y110.28
G1 F1500 E-6.23761
;MESH:NONMESH
G0 F600 X116.819 Y110.28 Z0.57
G0 F9375 X117.299 Y112.039
;TIME_ELAPSED:10.287258
;LAYER:2
M106 S170
M204 S500
M205 X20 Y20
;TYPE:WALL-OUTER
;MESH:Copy of Cube Extruder (3).stl
G1 F1500 E0.26239
G1 F347.7 X116.5 Y112.109 E0.26899
G1 X115.701 Y112.039 E0.27559
G1 X114.927 Y111.832 E0.28218
G1 X114.191 Y111.488 E0.28887
G1 X113.542 Y111.034 E0.29539
G1 X112.966 Y110.458 E0.30209
G1 X112.512 Y109.809 E0.30861
G1 X112.168 Y109.073 E0.3153
G1 X111.961 Y108.299 E0.32189
G1 X111.891 Y107.5 E0.32849
G1 X111.961 Y106.701 E0.33509
G1 X112.168 Y105.927 E0.34168
G1 X112.512 Y105.191 E0.34837
G1 X112.966 Y104.542 E0.35489
G1 X113.542 Y103.966 E0.36159
G1 X114.191 Y103.512 E0.36811
G1 X114.927 Y103.168 E0.3748
G1 X115.701 Y102.961 E0.38139
G1 X116.5 Y102.891 E0.38799
G1 X117.299 Y102.961 E0.39459
G1 X118.073 Y103.168 E0.40119
G1 X118.809 Y103.512 E0.40787
G1 X119.458 Y103.966 E0.41439
G1 X120.034 Y104.542 E0.42109
G1 X120.488 Y105.191 E0.42761
G1 X120.832 Y105.927 E0.4343
G1 X121.039 Y106.701 E0.44089
G1 X121.109 Y107.5 E0.44749
G1 X121.039 Y108.299 E0.45409
G1 X120.832 Y109.073 E0.46069
G1 X120.488 Y109.809 E0.46737
G1 X120.034 Y110.458 E0.47389
G1 X119.458 Y111.034 E0.48059
G1 X118.809 Y111.488 E0.48711
G1 X118.073 Y111.832 E0.4938
G1 X117.299 Y112.039 E0.50039
M204 S5000
M205 X30 Y30
G0 F15000 X117.1 Y112.056
G0 X117.072 Y111.708
G1 F1500 E-5.99961
;MESH:NONMESH
G0 F600 X117.072 Y111.708 Z0.72
G0 F15000 X117.55 Y113.466
;TIME_ELAPSED:15.958461
;LAYER:3
M106 S255
M204 S500
M205 X20 Y20
;TYPE:WALL-OUTER
;MESH:Copy of Cube Extruder (3).stl
G1 F1500 E0.50039
G1 F457.1 X116.5 Y113.559 E0.50907
G1 X115.45 Y113.466 E0.51774
G1 X114.431 Y113.194 E0.52642
G1 X113.466 Y112.744 E0.53518
G1 X112.61 Y112.145 E0.54378
G1 X111.855 Y111.39 E0.55257
G1 X111.256 Y110.534 E0.56117
G1 X110.806 Y109.569 E0.56993
G1 X110.534 Y108.55 E0.57861
G1 X110.441 Y107.5 E0.58728
G1 X110.534 Y106.45 E0.59596
G1 X110.806 Y105.431 E0.60464
G1 X111.256 Y104.466 E0.6134
G1 X111.855 Y103.61 E0.622
G1 X112.61 Y102.855 E0.63079
G1 X113.466 Y102.256 E0.63938
G1 X114.431 Y101.806 E0.64815
G1 X115.45 Y101.534 E0.65683
G1 X116.5 Y101.441 E0.6655
G1 X117.55 Y101.534 E0.67418
G1 X118.569 Y101.806 E0.68286
G1 X119.534 Y102.256 E0.69162
G1 X120.39 Y102.855 E0.70022
G1 X121.145 Y103.61 E0.709
G1 X121.744 Y104.466 E0.7176
G1 X122.194 Y105.431 E0.72636
G1 X122.466 Y106.45 E0.73504
G1 X122.559 Y107.5 E0.74372
G1 X122.466 Y108.55 E0.75239
G1 X122.194 Y109.569 E0.76107
G1 X121.744 Y110.534 E0.76984
G1 X121.145 Y111.39 E0.77843
G1 X120.39 Y112.145 E0.78722
G1 X119.534 Y112.744 E0.79582
G1 X118.569 Y113.194 E0.80458
G1 X117.55 Y113.466 E0.81326
M204 S5000
M205 X30 Y30
G0 F15000 X117.351 Y113.483
G0 X117.323 Y113.135
G1 F1500 E-5.68674
;MESH:NONMESH
G0 F600 X117.323 Y113.135 Z0.87
G0 F15000 X117.802 Y114.894
;TIME_ELAPSED:21.629858
;LAYER:4
M204 S500
M205 X20 Y20
;TYPE:WALL-OUTER
;MESH:Copy of Cube Extruder (3).stl
G1 F1500 E0.81326
G1 F566.5 X116.5 Y115.009 E0.82402
G1 X115.198 Y114.894 E0.83477
G1 X113.935 Y114.557 E0.84553
G1 X112.741 Y114 E0.85637
G1 X111.678 Y113.255 E0.86706
G1 X110.745 Y112.322 E0.87792
G1 X110 Y111.259 E0.8886
G1 X109.443 Y110.065 E0.89944
G1 X109.106 Y108.802 E0.9102
G1 X108.991 Y107.5 E0.92096
G1 X109.106 Y106.198 E0.93171
G1 X109.443 Y104.935 E0.94247
G1 X110 Y103.741 E0.95331
G1 X110.745 Y102.678 E0.96399
G1 X111.678 Y101.745 E0.97485
G1 X112.741 Y101 E0.98554
G1 X113.935 Y100.443 E0.99638
G1 X115.198 Y100.106 E1.00714
G1 X116.5 Y99.991 E1.01789
G1 X117.802 Y100.106 E1.02865
G1 X119.065 Y100.443 E1.03941
G1 X120.259 Y101 E1.05025
G1 X121.322 Y101.745 E1.06093
G1 X122.255 Y102.678 E1.07179
G1 X123 Y103.741 E1.08247
G1 X123.557 Y104.935 E1.09332
G1 X123.894 Y106.198 E1.10407
G1 X124.009 Y107.5 E1.11483
G1 X123.894 Y108.802 E1.12559
G1 X123.557 Y110.065 E1.13635
G1 X123 Y111.259 E1.14719
G1 X122.255 Y112.322 E1.15787
G1 X121.322 Y113.255 E1.16873
G1 X120.259 Y114 E1.17941
G1 X119.065 Y114.557 E1.19026
G1 X117.802 Y114.894 E1.20101
M204 S5000
M205 X30 Y30
G0 F15000 X117.603 Y114.911
G0 X117.575 Y114.563
G1 F1500 E-5.29899
;MESH:NONMESH
G0 F600 X117.575 Y114.563 Z1.02
G0 F15000 X118.054 Y116.322
;TIME_ELAPSED:27.301454
;LAYER:5
M204 S500
M205 X20 Y20
;TYPE:WALL-OUTER
;MESH:Copy of Cube Extruder (3).stl
G1 F1500 E1.20101
G1 F675.8 X116.5 Y116.459 E1.21385
G1 X114.946 Y116.322 E1.22669
G1 X113.439 Y115.919 E1.23953
G1 X112.017 Y115.255 E1.25244
G1 X110.746 Y114.366 E1.26521
G1 X109.634 Y113.254 E1.27815
G1 X108.745 Y111.983 E1.29091
G1 X108.081 Y110.561 E1.30383
G1 X107.678 Y109.054 E1.31667
G1 X107.541 Y107.5 E1.32951
G1 X107.678 Y105.946 E1.34234
G1 X108.081 Y104.439 E1.35518
G1 X108.745 Y103.017 E1.3681
G1 X109.634 Y101.746 E1.38086
G1 X110.746 Y100.634 E1.3938
G1 X112.017 Y99.745 E1.40657
G1 X113.439 Y99.081 E1.41948
G1 X114.946 Y98.678 E1.43232
G1 X116.5 Y98.541 E1.44516
G1 X118.054 Y98.678 E1.458
G1 X119.561 Y99.081 E1.47084
G1 X120.983 Y99.745 E1.48375
G1 X122.254 Y100.634 E1.49652
G1 X123.366 Y101.746 E1.50946
G1 X124.255 Y103.017 E1.52222
G1 X124.919 Y104.439 E1.53514
G1 X125.322 Y105.946 E1.54798
G1 X125.459 Y107.5 E1.56081
G1 X125.322 Y109.054 E1.57365
G1 X124.919 Y110.561 E1.58649
G1 X124.255 Y111.983 E1.59941
G1 X123.366 Y113.254 E1.61217
G1 X122.254 Y114.366 E1.62511
G1 X120.983 Y115.255 E1.63788
G1 X119.561 Y115.919 E1.65079
G1 X118.054 Y116.322 E1.66363
M204 S5000
M205 X30 Y30
G0 F15000 X117.855 Y116.339
G0 X117.827 Y115.991
;MESH:NONMESH
G0 F600 X117.827 Y115.991 Z1.17
G0 F15000 X118.236 Y117.352
;TIME_ELAPSED:32.704957
;LAYER:6
M204 S500
M205 X20 Y20
;TYPE:WALL-OUTER
;MESH:Copy of Cube Extruder (3).stl
G1 F754.6 X116.5 Y117.505 E1.67797
G1 X114.764 Y117.352 E1.69232
G1 X113.081 Y116.903 E1.70665
G1 X111.493 Y116.161 E1.72107
G1 X110.073 Y115.168 E1.73533
G1 X108.832 Y113.927 E1.74978
G1 X107.839 Y112.507 E1.76404
G1 X107.097 Y110.919 E1.77846
G1 X106.648 Y109.236 E1.7928
G1 X106.495 Y107.5 E1.80714
G1 X106.648 Y105.764 E1.82148
G1 X107.097 Y104.081 E1.83582
G1 X107.839 Y102.493 E1.85024
G1 X108.832 Y101.073 E1.8645
G1 X110.072 Y99.831 E1.87894
G1 X111.493 Y98.839 E1.89321
G1 X113.081 Y98.097 E1.90763
G1 X114.764 Y97.648 E1.92197
G1 X116.5 Y97.495 E1.93631
G1 X118.236 Y97.648 E1.95065
G1 X119.919 Y98.097 E1.96499
G1 X121.507 Y98.839 E1.97941
G1 X122.927 Y99.832 E1.99367
G1 X124.168 Y101.073 E2.00811
G1 X125.161 Y102.493 E2.02237
G1 X125.903 Y104.081 E2.0368
G1 X126.352 Y105.764 E2.05113
G1 X126.505 Y107.5 E2.06548
G1 X126.352 Y109.236 E2.07982
G1 X125.903 Y110.919 E2.09415
G1 X125.161 Y112.507 E2.10858
G1 X124.168 Y113.927 E2.12284
G1 X122.928 Y115.169 E2.13728
G1 X121.507 Y116.161 E2.15154
G1 X119.919 Y116.903 E2.16597
G1 X118.236 Y117.352 E2.1803
M204 S5000
M205 X30 Y30
G0 F15000 X118.037 Y117.369
G0 X118.009 Y117.021
;MESH:NONMESH
G0 F600 X118.009 Y117.021 Z1.32
G0 F15000 X118.318 Y117.819
;TIME_ELAPSED:37.794748
;LAYER:7
M204 S500
M205 X20 Y20
;TYPE:WALL-OUTER
;MESH:Copy of Cube Extruder (3).stl
G1 F789.9 X116.5 Y117.979 E2.19532
G1 X114.682 Y117.819 E2.21034
G1 X113.131 Y117.405 E2.22355
G1 X112.918 Y117.346 E2.22537
G1 X111.26 Y116.573 E2.24043
G1 X109.767 Y115.528 E2.25542
G1 X108.473 Y114.235 E2.27048
G1 X107.429 Y112.743 E2.28546
G1 X106.653 Y111.081 E2.30056
G1 X106.181 Y109.318 E2.31558
G1 X106.021 Y107.5 E2.3306
G1 X106.181 Y105.682 E2.34562
G1 X106.595 Y104.131 E2.35883
G1 X106.654 Y103.918 E2.36065
G1 X107.427 Y102.26 E2.3757
G1 X108.472 Y100.767 E2.3907
G1 X109.768 Y99.469 E2.40579
G1 X111.257 Y98.429 E2.42074
G1 X112.919 Y97.653 E2.43584
G1 X114.682 Y97.181 E2.45086
G1 X116.5 Y97.021 E2.46587
G1 X118.318 Y97.181 E2.48089
G1 X119.869 Y97.595 E2.49411
G1 X120.082 Y97.654 E2.49592
G1 X121.74 Y98.427 E2.51098
G1 X123.233 Y99.472 E2.52598
G1 X124.527 Y100.765 E2.54103
G1 X125.571 Y102.257 E2.55602
G1 X126.347 Y103.919 E2.57111
G1 X126.819 Y105.682 E2.58613
G1 X126.979 Y107.5 E2.60115
G1 X126.819 Y109.318 E2.61617
G1 X126.405 Y110.869 E2.62938
G1 X126.346 Y111.082 E2.6312
G1 X125.573 Y112.74 E2.64625
G1 X124.528 Y114.233 E2.66125
G1 X123.232 Y115.531 E2.67635
G1 X121.743 Y116.571 E2.69129
G1 X120.081 Y117.347 E2.70639
G1 X118.318 Y117.819 E2.72141
M204 S5000
M205 X30 Y30
G0 F15000 X118.119 Y117.836
G0 X118.091 Y117.488
;MESH:NONMESH
G0 F600 X118.091 Y117.488 Z1.47
G0 F15000 X118.4 Y118.285
;TIME_ELAPSED:42.886945
;LAYER:8
M204 S500
M205 X20 Y20
;TYPE:WALL-OUTER
;MESH:Copy of Cube Extruder (3).stl
G1 F825.6 X116.5 Y118.452 E2.73711
G1 X114.6 Y118.285 E2.7528
G1 X112.758 Y117.792 E2.76849
G1 X111.02 Y116.981 E2.78428
G1 X109.778 Y116.114 E2.79674
G1 X109.465 Y115.893 E2.7999
G1 X108.107 Y114.536 E2.8157
G1 X107.019 Y112.98 E2.83132
G1 X106.373 Y111.599 E2.84387
G1 X106.208 Y111.242 E2.8471
G1 X105.715 Y109.4 E2.8628
G1 X105.548 Y107.5 E2.87849
G1 X105.715 Y105.6 E2.89419
G1 X106.208 Y103.758 E2.90988
G1 X107.019 Y102.02 E2.92567
G1 X107.886 Y100.778 E2.93813
G1 X108.107 Y100.465 E2.94129
G1 X109.464 Y99.106 E2.95709
G1 X111.02 Y98.019 E2.97271
G1 X112.401 Y97.373 E2.98526
G1 X112.758 Y97.208 E2.98849
G1 X114.6 Y96.715 E3.00419
G1 X116.5 Y96.548 E3.01988
G1 X118.4 Y96.715 E3.03558
G1 X120.242 Y97.208 E3.05127
G1 X121.98 Y98.019 E3.06706
G1 X123.222 Y98.886 E3.07952
G1 X123.535 Y99.107 E3.08267
G1 X124.893 Y100.464 E3.09847
G1 X125.981 Y102.02 E3.1141
G1 X126.627 Y103.401 E3.12665
G1 X126.792 Y103.758 E3.12988
G1 X127.285 Y105.6 E3.14558
G1 X127.452 Y107.5 E3.16127
G1 X127.285 Y109.4 E3.17697
G1 X126.792 Y111.242 E3.19266
G1 X125.981 Y112.98 E3.20844
G1 X125.114 Y114.222 E3.22091
G1 X124.893 Y114.535 E3.22406
G1 X123.536 Y115.894 E3.23987
G1 X121.98 Y116.981 E3.25549
G1 X120.599 Y117.627 E3.26804
G1 X120.242 Y117.792 E3.27127
G1 X118.4 Y118.285 E3.28696
M204 S5000
M205 X30 Y30
G0 F15000 X118.201 Y118.302
G0 X118.173 Y117.954
;MESH:NONMESH
G0 F600 X118.173 Y117.954 Z1.62
G0 F15000 X118.482 Y118.751
;TIME_ELAPSED:47.979337
;LAYER:9
M204 S500
M205 X20 Y20
;TYPE:WALL-OUTER
;MESH:Copy of Cube Extruder (3).stl
G1 F861.3 X116.5 Y118.925 E3.30334
G1 X114.518 Y118.751 E3.31971
G1 X112.596 Y118.237 E3.33609
G1 X110.783 Y117.391 E3.35255
G1 X109.611 Y116.572 E3.36432
G1 X109.161 Y116.255 E3.36885
G1 X108.141 Y115.238 E3.3807
G1 X107.745 Y114.839 E3.38533
G1 X106.609 Y113.217 E3.40162
G1 X105.763 Y111.404 E3.41809
G1 X105.249 Y109.482 E3.43446
G1 X105.075 Y107.5 E3.45084
G1 X105.249 Y105.518 E3.46721
G1 X105.763 Y103.596 E3.48358
G1 X106.609 Y101.783 E3.50005
G1 X107.428 Y100.611 E3.51181
G1 X107.745 Y100.161 E3.51634
G1 X109.16 Y98.744 E3.53282
G1 X110.783 Y97.609 E3.54912
G1 X112.596 Y96.763 E3.56559
G1 X114.518 Y96.249 E3.58196
G1 X116.5 Y96.075 E3.59833
G1 X118.482 Y96.249 E3.61471
G1 X120.404 Y96.763 E3.63108
G1 X122.217 Y97.609 E3.64755
G1 X123.389 Y98.428 E3.65931
G1 X123.839 Y98.745 E3.66384
G1 X124.859 Y99.762 E3.6757
G1 X125.255 Y100.161 E3.68032
G1 X126.391 Y101.783 E3.69662
G1 X127.237 Y103.596 E3.71308
G1 X127.751 Y105.518 E3.72946
G1 X127.925 Y107.5 E3.74583
G1 X127.751 Y109.482 E3.76221
G1 X127.237 Y111.404 E3.77858
G1 X126.391 Y113.217 E3.79504
G1 X125.572 Y114.389 E3.80681
G1 X125.255 Y114.839 E3.81134
G1 X123.84 Y116.256 E3.82782
G1 X122.217 Y117.391 E3.84412
G1 X120.404 Y118.237 E3.86058
G1 X118.482 Y118.751 E3.87696
M204 S5000
M205 X30 Y30
G0 F15000 X118.283 Y118.768
G0 X118.255 Y118.42
;MESH:NONMESH
G0 F600 X118.255 Y118.42 Z1.77
G0 F15000 X118.564 Y119.217
;TIME_ELAPSED:53.071949
;LAYER:10
M204 S500
M205 X20 Y20
;TYPE:WALL-OUTER
;MESH:Copy of Cube Extruder (3).stl
G1 F897 X116.5 Y119.399 E3.89401
G1 X114.436 Y119.217 E3.91106
G1 X112.434 Y118.682 E3.92811
G1 X110.547 Y117.801 E3.94525
G1 X108.856 Y116.618 E3.96224
G1 X107.897 Y115.661 E3.97339
G1 X107.382 Y115.144 E3.97939
G1 X106.196 Y113.448 E3.99642
G1 X105.624 Y112.227 E4.00752
G1 X105.32 Y111.571 E4.01347
G1 X104.969 Y110.267 E4.02458
G1 X104.783 Y109.564 E4.03057
G1 X104.601 Y107.5 E4.04762
G1 X104.783 Y105.436 E4.06467
G1 X105.318 Y103.434 E4.08172
G1 X106.199 Y101.547 E4.09886
G1 X107.382 Y99.856 E4.11585
G1 X108.855 Y98.381 E4.133
G1 X110.552 Y97.196 E4.15004
G1 X111.773 Y96.624 E4.16113
G1 X112.429 Y96.32 E4.16708
G1 X113.733 Y95.969 E4.1782
G1 X114.436 Y95.783 E4.18418
G1 X116.5 Y95.601 E4.20123
G1 X118.564 Y95.783 E4.21828
G1 X120.566 Y96.318 E4.23534
G1 X122.453 Y97.199 E4.25248
G1 X124.144 Y98.382 E4.26946
G1 X125.103 Y99.339 E4.28061
G1 X125.618 Y99.856 E4.28661
G1 X126.804 Y101.552 E4.30365
G1 X127.376 Y102.773 E4.31474
G1 X127.68 Y103.429 E4.32069
G1 X128.031 Y104.733 E4.33181
G1 X128.217 Y105.436 E4.33779
